!!!ONB: MCCC : IWM0406_01 : Extracted Monophonic Melody
!!!COM: Mozart, Wolfgang Amadeus
!!!OPR: Piano Sonata No.6
!!!OMV: 1
!!!SCT: K.284 ; K⁶.205b ; Op. 7 No. 2
!!!ODT: 1775///
**kern
*thru
*staff1
*>A
*clefG2
*k[f#c#]
*D:
*M4/4
*met(c)
*MM136
=1
4dd:
4r
16g
16f#
16e
16d
16g
16f#
16e
16d
=2
4a
4f#
4b
8r
8f#
=3
8g
8e
8a
8f#
8d
8B
8e
8c#
=4
4A
4r
8r
8dd
8dd
8dd
=5
8dd
8cc#
4cc#
8r
8ff#
8ff#
8ff#
=6
8ff#
8ee
4ee
8r
8aa
8aa
8aa
=7
16gg
16ff#
16gg
16aa
16bb
16aa
16gg
16ff#
16ee
16dd#
16ee
16ff#
16gg
16ff#
16ee
16dd
=8
16cc#
16b
16cc#
16dd
16ee
16dd
16cc#
16b
16a
16g#
16a
16b
16a
16g
16f#
16e
=9
2d
4e
4f#
=10
8.g
32a
32b
8a
8g
4f#
4r
=11
2f#
4g
4a
=12
8.b
32cc#
32dd
8cc#
8b
4a
8r
8ff#
=13
16ee
16ddd
16ee
16ddd
16ee
16ddd
16ee
16ddd
16ee
16ddd
16ee
16ddd
16ee
16ddd
16ee
16ddd
=14
16ff#
16ddd
16ff#
16ddd
16ff#
16ddd
16ff#
16ddd
16ff#
16ddd
16ff#
16ddd
16ff#
16ddd
16ff#
16ddd
=15
16gg
16ddd
16gg
16ddd
16gg
16ddd
16gg
16ddd
16gg
16ddd
16gg
16ddd
16gg
16ddd
16gg
16ddd
=16
16gg#
16ddd
16gg#
16ddd
16gg#
16ddd
16gg#
16ddd
16gg#
16ddd
16gg#
16ddd
16gg#
16ddd
16gg#
16ddd
=17
4ccc#
8r
8aa
8gg
8ff#
8ee
8dd
=18
8cc#
8dd
8ee
8ff#
16aa
16gg
16ff#
16ee
16gg
16ff#
16ee
16dd
=19
4aa
8r
8aa
8gg
8ff#
8ee
8dd
=20
8cc#
8dd
8ee
8ff#
16aa
16gg
16ff#
16ee
16gg
16ff#
16ee
16dd
=21
4aa
16ee
16cc#
16ee
16cc#
4a
4r
=22
4ee
8aa
8gg#
8bb
8aa
8gg#
8ff#
=23
8ff#
8ee
4.ee
16ee
16dd#
8ee
8ff#
=24
8ee
4dd
8ff#
8dd
4cc#
8ee
=25
16cc#
16b
16dd
16cc#
16ee
16dd
16cc#
16b
16a
16b
16a
16g#
16a
16b
16cc#
16dd
=26
16dd#
16ee
16ff#
16ee
16gg#
16ff#
16aa
16gg#
8bb
8aa
8gg#
8ff#
=27
8dd#
16ff#
16ee
[4ee
16ee]
16ff#
16ee
16dd#
8ee
8ee[
=28
8ee]
4cc#
4dd
4b#
8cc#[
=29
8cc#]
4a#
8b[
16b]
16g#
16b
16a
16ff#
16ee
16dd
16cc#
=30
16b
16aa
16a#
16aa
16b
16aa
16a#
16aa
16b
16dd
16ff#
16ee
16gg
16ff#
16ee
16dd
=31
16cc#
16aa
16b#
16aa
16cc#
16aa
16b#
16aa
16cc#
16ee
16gg
16ff#
16aa
16gg
16ff#
16ee
=32
16dd
16aa
16cc#
16aa
16dd
16aa
16cc#
16aa
16dd
16ff#
16aa
16gg#
16bb
16aa
16gg#
16aa
=33
8dd#
4aa
4ccc
4bb
8aa
=34
4gg#
8r
8ee
8ee#
8ff#
4dd
=35
8dd#
8ee
2cc#
4b
=36
8b#
8cc#
8r
8ee
16ff#
16gg#
16aa
16gg#
16bb
16aa
16gg#
16ff#
=37
16ee
16aa
16ccc#
16gg#
16aa
16ee
16ff#
16cc#
16dd
16ee
16ff#
16ee
16gg#
16ff#
16ee
16dd
=38
16cc#
16ee
16aa
16gg#
16aa
16ee
16cc#
16a
16aa
16ee
16cc#
16a
16aa
16ee
16cc#
16a
=39
16ff#
16gg#
16aa
16gg#
16aa
16ff#
16dd
16a
16aa
16ff#
16dd
16a
16aa
16ff#
16dd
16a
=40
8.ee
32ff#
32dd
4.cc#
8ee
8dd
8b
=41
16cc#
16ee
16aa
16gg#
16aa
16ee
16cc#
16a
16aa
16ee
16cc#
16a
16aa
16ee
16cc#
16a
=42
16ff#
16gg#
16aa
16gg#
16aa
16ff#
16dd
16a
16aa
16ff#
16dd
16a
16aa
16ff#
16dd
16a
=43
8.ee
32ff#
32dd
4.cc#
8ee
8dd
8b
=44
8.a
32b
32g#
8.f#
32g#
32e
8.d
32e
32c#
8.B
32c#
32A
=45
4G#
4ddd:
4r
4ccc#:
=46
8r
8ff#
8ee#
8ff#
8ee#
8ff#
8gg#
8aa
=47
8r
8aa
8gg#
8aa
8gg#
8aa
8bb
8ccc
=48
16ccc#
16eee
16ccc#
16aa
16aa
16ccc#
16aa
16ee
16ee
16aa
16ee
16cc#
16cc#
16ee
16cc#
16a
=49
1b
=50
4.a
16cc#
16a
8dd
16b
16g#
8a
16f#
16d#
=51
4e
4gg#:
4aa:
4r
=52
*>A
*M4/4
4dd:
4r
16g
16f#
16e
16d
16g
16f#
16e
16d
=53
4a
4f#
4b
8r
8f#
=54
8g
8e
8a
8f#
8d
8B
8e
8c#
=55
4A
4r
8r
8dd
8dd
8dd
=56
8dd
8cc#
4cc#
8r
8ff#
8ff#
8ff#
=57
8ff#
8ee
4ee
8r
8aa
8aa
8aa
=58
16gg
16ff#
16gg
16aa
16bb
16aa
16gg
16ff#
16ee
16dd#
16ee
16ff#
16gg
16ff#
16ee
16dd
=59
16cc#
16b
16cc#
16dd
16ee
16dd
16cc#
16b
16a
16g#
16a
16b
16a
16g
16f#
16e
=60
2d
4e
4f#
=61
8.g
32a
32b
8a
8g
4f#
4r
=62
2f#
4g
4a
=63
8.b
32cc#
32dd
8cc#
8b
4a
8r
8ff#
=64
16ee
16ddd
16ee
16ddd
16ee
16ddd
16ee
16ddd
16ee
16ddd
16ee
16ddd
16ee
16ddd
16ee
16ddd
=65
16ff#
16ddd
16ff#
16ddd
16ff#
16ddd
16ff#
16ddd
16ff#
16ddd
16ff#
16ddd
16ff#
16ddd
16ff#
16ddd
=66
16gg
16ddd
16gg
16ddd
16gg
16ddd
16gg
16ddd
16gg
16ddd
16gg
16ddd
16gg
16ddd
16gg
16ddd
=67
16gg#
16ddd
16gg#
16ddd
16gg#
16ddd
16gg#
16ddd
16gg#
16ddd
16gg#
16ddd
16gg#
16ddd
16gg#
16ddd
=68
4ccc#
8r
8aa
8gg
8ff#
8ee
8dd
=69
8cc#
8dd
8ee
8ff#
16aa
16gg
16ff#
16ee
16gg
16ff#
16ee
16dd
=70
4aa
8r
8aa
8gg
8ff#
8ee
8dd
=71
8cc#
8dd
8ee
8ff#
16aa
16gg
16ff#
16ee
16gg
16ff#
16ee
16dd
=72
4aa
16ee
16cc#
16ee
16cc#
4a
4r
=73
4ee
8aa
8gg#
8bb
8aa
8gg#
8ff#
=74
8ff#
8ee
4.ee
16ee
16dd#
8ee
8ff#
=75
8ee
4dd
8ff#
8dd
4cc#
8ee
=76
16cc#
16b
16dd
16cc#
16ee
16dd
16cc#
16b
16a
16b
16a
16g#
16a
16b
16cc#
16dd
=77
16dd#
16ee
16ff#
16ee
16gg#
16ff#
16aa
16gg#
8bb
8aa
8gg#
8ff#
=78
8dd#
16ff#
16ee
[4ee
16ee]
16ff#
16ee
16dd#
8ee
8ee[
=79
8ee]
4cc#
4dd
4b#
8cc#[
=80
8cc#]
4a#
8b[
16b]
16g#
16b
16a
16ff#
16ee
16dd
16cc#
=81
16b
16aa
16a#
16aa
16b
16aa
16a#
16aa
16b
16dd
16ff#
16ee
16gg
16ff#
16ee
16dd
=82
16cc#
16aa
16b#
16aa
16cc#
16aa
16b#
16aa
16cc#
16ee
16gg
16ff#
16aa
16gg
16ff#
16ee
=83
16dd
16aa
16cc#
16aa
16dd
16aa
16cc#
16aa
16dd
16ff#
16aa
16gg#
16bb
16aa
16gg#
16aa
=84
8dd#
4aa
4ccc
4bb
8aa
=85
4gg#
8r
8ee
8ee#
8ff#
4dd
=86
8dd#
8ee
2cc#
4b
=87
8b#
8cc#
8r
8ee
16ff#
16gg#
16aa
16gg#
16bb
16aa
16gg#
16ff#
=88
16ee
16aa
16ccc#
16gg#
16aa
16ee
16ff#
16cc#
16dd
16ee
16ff#
16ee
16gg#
16ff#
16ee
16dd
=89
16cc#
16ee
16aa
16gg#
16aa
16ee
16cc#
16a
16aa
16ee
16cc#
16a
16aa
16ee
16cc#
16a
=90
16ff#
16gg#
16aa
16gg#
16aa
16ff#
16dd
16a
16aa
16ff#
16dd
16a
16aa
16ff#
16dd
16a
=91
8.ee
32ff#
32dd
4.cc#
8ee
8dd
8b
=92
16cc#
16ee
16aa
16gg#
16aa
16ee
16cc#
16a
16aa
16ee
16cc#
16a
16aa
16ee
16cc#
16a
=93
16ff#
16gg#
16aa
16gg#
16aa
16ff#
16dd
16a
16aa
16ff#
16dd
16a
16aa
16ff#
16dd
16a
=94
8.ee
32ff#
32dd
4.cc#
8ee
8dd
8b
=95
8.a
32b
32g#
8.f#
32g#
32e
8.d
32e
32c#
8.B
32c#
32A
=96
4G#
4ddd:
4r
4ccc#:
=97
8r
8ff#
8ee#
8ff#
8ee#
8ff#
8gg#
8aa
=98
8r
8aa
8gg#
8aa
8gg#
8aa
8bb
8ccc
=99
16ccc#
16eee
16ccc#
16aa
16aa
16ccc#
16aa
16ee
16ee
16aa
16ee
16cc#
16cc#
16ee
16cc#
16a
=100
1b
=101
4.a
16cc#
16a
8dd
16b
16g#
8a
16f#
16d#
=102
4e
4gg#:
4aa:
4r
=103
*>B
16a
16aa
16gg#
16aa
16a
16aa
16b
16aa
16cc
16aa
16dd
16aa
16cc
16aa
16b
16aa
=104
16a
16aa
16gg#
16aa
8ccc
8bb
8aa
8bb
8aa
8gg
=105
16ff#
16bb
16aa#
16bb
16dd#
16bb
16ee
16bb
16ff#
16bb
16gg
16bb
16ff#
16bb
16ee
16bb
=106
16dd#
16bb
16aa#
16bb
8ccc
8bb
8aa
8gg
8ff#
8aa
=107
16gg
16ee
16dd#
16ee
16e
16ee
16f#
16ee
16g
16ee
16a
16ee
16g
16ee
16f#
16ee
=108
16e
16ee
16dd#
16ee
8gg
8ff#
8ee
8ff#
8ee
8dd
=109
16cc#
16ff#
16ee#
16ff#
16a#
16ff#
16b
16ff#
16cc#
16ff#
16dd
16ff#
16cc#
16ff#
16b
16ff#
=110
16a#
16ff#
16ee#
16ff#
8gg
8ff#
8ee
8dd
8cc#
8ee
=111
4dd
4.ddd
8bb
8gg
8ff#
=112
16r
16ee#
16gg#
16ee#
4bb
4ccc#
4ddd
=113
4ff#
4.ccc
8aa
8ff#
8ee
=114
16r
16dd#
16ff#
16dd#
4aa
4bb
4ccc
=115
4ee
4.bb-
8gg
8ee
8dd
=116
16r
16cc#
16ee
16cc#
4gg
4aa
4bb-
=117
16r
16dd
16ddd
16dd
16r
16cc#
16ccc#
16cc#
16r
16dd
16ddd
16dd
16r
16a
16aa
16a
=118
16r
16b-
16bb-
16b-
16r
16a
16aa
16a
16r
16b-
16bb-
16b-
16r
16f#
16ff#
16f#
=119
16r
16g
16gg
16g
16r
16f#
16ff#
16f#
16r
16g
16gg
16g
16r
16f
16ff
16f
=120
16r
16e-
16ee-
16e-
16r
16d
16dd
16d
16r
16e-
16ee-
16e-
16r
16d
16dd
16d
=121
16cc#
16b
16a
16g#
16a
16b
16cc#
16dd
16ee
16dd
16cc#
16b
16cc#
16dd
16ee
16ff#
=122
16gg
16ff#
16ee
16ff#
16ee
16dd
16cc#
16dd
16cc#
16b
16a
16b
16a
16g
16f#
16e
=123
4dd
4r
16g
16f#
16e
16d
16g
16f#
16e
16d
=124
4a
4f#
4b
8r
8f#
=125
8g
8e
8a
8f#
8d
8B
8e
8c#
=126
4A
4r
8r
8dd
8dd
8dd
=127
8dd
8cc#
4cc#
8r
8ff#
8ff#
8ff#
=128
8ff#
8ee
4ee
8r
8aa
8aa
8aa
=129
16gg
16ff#
16gg
16aa
16bb
16aa
16gg
16ff#
16ee
16dd#
16ee
16ff#
16gg
16ff#
16ee
16dd
=130
16cc#
16b
16cc#
16dd
16ee
16dd
16cc#
16b
16a
16g#
16a
16b
16a
16g
16f#
16e
=131
2d
4e
4f#
=132
8.g
32a
32b
8a
8g
4f#
4r
=133
2f#
4g
4a
=134
8.b
32cc#
32dd
8cc#
8b
4a
8r
8ff#
=135
16ee
16ddd
16ee
16ddd
16ee
16ddd
16ee
16ddd
16ee
16ddd
16ee
16ddd
16ee
16ddd
16ee
16ddd
=136
16ff#
16ddd
16ff#
16ddd
16ff#
16ddd
16ff#
16ddd
16ff#
16ddd
16ff#
16ddd
16ff#
16ddd
16ff#
16ddd
=137
16gg
16ddd
16gg
16ddd
16gg
16ddd
16gg
16ddd
16gg
16ddd
16gg
16ddd
16gg
16ddd
16gg
16ddd
=138
16gg#
16ddd
16gg#
16ddd
16gg#
16ddd
16gg#
16ddd
16gg#
16ddd
16gg#
16ddd
16gg#
16ddd
16gg#
16ddd
=139
4ccc#
8r
8aa
8gg
8ff#
8ee
8dd
=140
8cc#
8dd
8ee
8ff#
16aa
16gg
16ff#
16ee
16gg
16ff#
16ee
16dd
=141
4aa
8r
8aa
8gg
8ff#
8ee
8dd
=142
8cc#
8dd
8ee
8ff#
16aa
16gg
16ff#
16ee
16gg
16ff#
16ee
16dd
=143
4aa
16ee
16cc#
16ee
16cc#
4a
4r
=144
4a
8dd
8cc#
8ee
8dd
8cc#
8b
=145
8b
8a
4.a
16a
16g#
8a
8b
=146
8a
4g
8b
8g
4f#
8a
=147
16f#
16e
16g
16f#
16a
16g
16f#
16e
16d
16e
16d
16c#
16d
16e
16f#
16g
=148
16g#
16a
16b
16a
16cc#
16b
16dd
16cc#
16ee
16dd
16ff#
16ee
16gg
16ff#
16aa
16gg
=149
16gg#
16aa
16bb
16aa
16ccc#
16bb
16ddd
16ccc#
8eee
8ddd
8ccc#
8bb
=150
8gg#
16bb
16aa
[4aa
16aa]
16bb
16aa
16gg#
8aa
8aa[
=151
8aa]
4ff#
4gg
4ee#
8ff#[
=152
8ff#]
4dd#
8ee[
16ee]
16cc#
16ee
16dd
16bb
16aa
16gg
16ff#
=153
16ee
16ddd
16dd#
16ddd
16ee
16ddd
16dd#
16ddd
16ee
16gg
16bb
16aa
16ccc
16bb
16aa
16gg
=154
16ff#
16ddd
16ee#
16ddd
16ff#
16ddd
16ee#
16ddd
16ff#
16aa
16ccc
16bb
16ddd
16ccc
16bb
16aa
=155
16gg
16ddd
16ff#
16ddd
16gg
16ddd
16ff#
16ddd
16gg
16bb
16ddd
16ccc#
16ddd
16ccc#
16bb
16aa
=156
8gg#
4dd
4ff
4ee
8dd
=157
4cc#
4r
8a#
8b
4g
=158
8g#
8a
2f#
4e
=159
8e#
8f#
8r
8aa
16bb
16ccc#
16ddd
16ccc#
16eee
16ddd
16ccc#
16bb
=160
16aa
16ccc#
16ddd
16ccc#
16ddd
16aa
16bb
16ff#
16gg
16aa
16bb
16aa
16ccc#
16bb
16aa
16gg
=161
16ff#
16aa
16ddd
16ccc#
16ddd
16aa
16ff#
16dd
16ddd
16aa
16ff#
16dd
16ddd
16aa
16ff#
16dd
=162
16bb
16ccc#
16ddd
16ccc#
16ddd
16bb
16gg
16dd
16ddd
16bb
16gg
16dd
16ddd
16bb
16gg
16dd
=163
8.aa
32bb
32gg
4.ff#
8aa
8gg
8ee
=164
16ff#
16aa
16ddd
16ccc#
16ddd
16aa
16ff#
16dd
16ddd
16aa
16ff#
16dd
16ddd
16aa
16ff#
16dd
=165
16bb
16ccc#
16ddd
16ccc#
16ddd
16bb
16gg
16dd
16ddd
16bb
16gg
16dd
16ddd
16bb
16gg
16dd
=166
8.aa
32bb
32gg
4.ff#
8aa
8gg
8ee
=167
8.dd
32ee
32cc#
8.b
32cc#
32a
8.g
32a
32f#
8.e
32f#
32d
=168
4c#
4gg:
4r
4ff#:
=169
8r
8b
8a#
8b
8r
8dd
8cc#
8dd
=170
2a
2ee
=171
16dd
16ff#
16dd
16cc#
16b
16dd
16b
16a
16g
16b
16g
16f#
16e
16g
16e
16d
=172
8c#
16r
32a
32ee
8gg
8gg
8r
16r
32a
32dd
8ff#
8ff#
=173
8r
8bb
8aa#
8bb
8aa#
8bb
8ccc#
8ddd
=174
8r
8ddd
8ccc#
8ddd
8ccc#
8ddd
8eee
8fff
=175
16aa
16ddd
16aa
16ff#
16ff#
16aa
16ff#
16dd
16aa
16ddd
16aa
16ff#
16ff#
16aa
16ff#
16dd
=176
1ee
=177
4.dd
16f#
16d
8g
16e
16c#
8d
16B
16G#
=178
4A
4ccc#
4ddd
4r
=179
*>B
16a
16aa
16gg#
16aa
16a
16aa
16b
16aa
16cc
16aa
16dd
16aa
16cc
16aa
16b
16aa
=180
16a
16aa
16gg#
16aa
8ccc
8bb
8aa
8bb
8aa
8gg
=181
16ff#
16bb
16aa#
16bb
16dd#
16bb
16ee
16bb
16ff#
16bb
16gg
16bb
16ff#
16bb
16ee
16bb
=182
16dd#
16bb
16aa#
16bb
8ccc
8bb
8aa
8gg
8ff#
8aa
=183
16gg
16ee
16dd#
16ee
16e
16ee
16f#
16ee
16g
16ee
16a
16ee
16g
16ee
16f#
16ee
=184
16e
16ee
16dd#
16ee
8gg
8ff#
8ee
8ff#
8ee
8dd
=185
16cc#
16ff#
16ee#
16ff#
16a#
16ff#
16b
16ff#
16cc#
16ff#
16dd
16ff#
16cc#
16ff#
16b
16ff#
=186
16a#
16ff#
16ee#
16ff#
8gg
8ff#
8ee
8dd
8cc#
8ee
=187
4dd
4.ddd
8bb
8gg
8ff#
=188
16r
16ee#
16gg#
16ee#
4bb
4ccc#
4ddd
=189
4ff#
4.ccc
8aa
8ff#
8ee
=190
16r
16dd#
16ff#
16dd#
4aa
4bb
4ccc
=191
4ee
4.bb-
8gg
8ee
8dd
=192
16r
16cc#
16ee
16cc#
4gg
4aa
4bb-
=193
16r
16dd
16ddd
16dd
16r
16cc#
16ccc#
16cc#
16r
16dd
16ddd
16dd
16r
16a
16aa
16a
=194
16r
16b-
16bb-
16b-
16r
16a
16aa
16a
16r
16b-
16bb-
16b-
16r
16f#
16ff#
16f#
=195
16r
16g
16gg
16g
16r
16f#
16ff#
16f#
16r
16g
16gg
16g
16r
16f
16ff
16f
=196
16r
16e-
16ee-
16e-
16r
16d
16dd
16d
16r
16e-
16ee-
16e-
16r
16d
16dd
16d
=197
16cc#
16b
16a
16g#
16a
16b
16cc#
16dd
16ee
16dd
16cc#
16b
16cc#
16dd
16ee
16ff#
=198
16gg
16ff#
16ee
16ff#
16ee
16dd
16cc#
16dd
16cc#
16b
16a
16b
16a
16g
16f#
16e
=199
4dd
4r
16g
16f#
16e
16d
16g
16f#
16e
16d
=200
4a
4f#
4b
8r
8f#
=201
8g
8e
8a
8f#
8d
8B
8e
8c#
=202
4A
4r
8r
8dd
8dd
8dd
=203
8dd
8cc#
4cc#
8r
8ff#
8ff#
8ff#
=204
8ff#
8ee
4ee
8r
8aa
8aa
8aa
=205
16gg
16ff#
16gg
16aa
16bb
16aa
16gg
16ff#
16ee
16dd#
16ee
16ff#
16gg
16ff#
16ee
16dd
=206
16cc#
16b
16cc#
16dd
16ee
16dd
16cc#
16b
16a
16g#
16a
16b
16a
16g
16f#
16e
=207
2d
4e
4f#
=208
8.g
32a
32b
8a
8g
4f#
4r
=209
2f#
4g
4a
=210
8.b
32cc#
32dd
8cc#
8b
4a
8r
8ff#
=211
16ee
16ddd
16ee
16ddd
16ee
16ddd
16ee
16ddd
16ee
16ddd
16ee
16ddd
16ee
16ddd
16ee
16ddd
=212
16ff#
16ddd
16ff#
16ddd
16ff#
16ddd
16ff#
16ddd
16ff#
16ddd
16ff#
16ddd
16ff#
16ddd
16ff#
16ddd
=213
16gg
16ddd
16gg
16ddd
16gg
16ddd
16gg
16ddd
16gg
16ddd
16gg
16ddd
16gg
16ddd
16gg
16ddd
=214
16gg#
16ddd
16gg#
16ddd
16gg#
16ddd
16gg#
16ddd
16gg#
16ddd
16gg#
16ddd
16gg#
16ddd
16gg#
16ddd
=215
4ccc#
8r
8aa
8gg
8ff#
8ee
8dd
=216
8cc#
8dd
8ee
8ff#
16aa
16gg
16ff#
16ee
16gg
16ff#
16ee
16dd
=217
4aa
8r
8aa
8gg
8ff#
8ee
8dd
=218
8cc#
8dd
8ee
8ff#
16aa
16gg
16ff#
16ee
16gg
16ff#
16ee
16dd
=219
4aa
16ee
16cc#
16ee
16cc#
4a
4r
=220
4a
8dd
8cc#
8ee
8dd
8cc#
8b
=221
8b
8a
4.a
16a
16g#
8a
8b
=222
8a
4g
8b
8g
4f#
8a
=223
16f#
16e
16g
16f#
16a
16g
16f#
16e
16d
16e
16d
16c#
16d
16e
16f#
16g
=224
16g#
16a
16b
16a
16cc#
16b
16dd
16cc#
16ee
16dd
16ff#
16ee
16gg
16ff#
16aa
16gg
=225
16gg#
16aa
16bb
16aa
16ccc#
16bb
16ddd
16ccc#
8eee
8ddd
8ccc#
8bb
=226
8gg#
16bb
16aa
[4aa
16aa]
16bb
16aa
16gg#
8aa
8aa[
=227
8aa]
4ff#
4gg
4ee#
8ff#[
=228
8ff#]
4dd#
8ee[
16ee]
16cc#
16ee
16dd
16bb
16aa
16gg
16ff#
=229
16ee
16ddd
16dd#
16ddd
16ee
16ddd
16dd#
16ddd
16ee
16gg
16bb
16aa
16ccc
16bb
16aa
16gg
=230
16ff#
16ddd
16ee#
16ddd
16ff#
16ddd
16ee#
16ddd
16ff#
16aa
16ccc
16bb
16ddd
16ccc
16bb
16aa
=231
16gg
16ddd
16ff#
16ddd
16gg
16ddd
16ff#
16ddd
16gg
16bb
16ddd
16ccc#
16ddd
16ccc#
16bb
16aa
=232
8gg#
4dd
4ff
4ee
8dd
=233
4cc#
4r
8a#
8b
4g
=234
8g#
8a
2f#
4e
=235
8e#
8f#
8r
8aa
16bb
16ccc#
16ddd
16ccc#
16eee
16ddd
16ccc#
16bb
=236
16aa
16ccc#
16ddd
16ccc#
16ddd
16aa
16bb
16ff#
16gg
16aa
16bb
16aa
16ccc#
16bb
16aa
16gg
=237
16ff#
16aa
16ddd
16ccc#
16ddd
16aa
16ff#
16dd
16ddd
16aa
16ff#
16dd
16ddd
16aa
16ff#
16dd
=238
16bb
16ccc#
16ddd
16ccc#
16ddd
16bb
16gg
16dd
16ddd
16bb
16gg
16dd
16ddd
16bb
16gg
16dd
=239
8.aa
32bb
32gg
4.ff#
8aa
8gg
8ee
=240
16ff#
16aa
16ddd
16ccc#
16ddd
16aa
16ff#
16dd
16ddd
16aa
16ff#
16dd
16ddd
16aa
16ff#
16dd
=241
16bb
16ccc#
16ddd
16ccc#
16ddd
16bb
16gg
16dd
16ddd
16bb
16gg
16dd
16ddd
16bb
16gg
16dd
=242
8.aa
32bb
32gg
4.ff#
8aa
8gg
8ee
=243
8.dd
32ee
32cc#
8.b
32cc#
32a
8.g
32a
32f#
8.e
32f#
32d
=244
4c#
4gg:
4r
4ff#:
=245
8r
8b
8a#
8b
8r
8dd
8cc#
8dd
=246
2a
2ee
=247
16dd
16ff#
16dd
16cc#
16b
16dd
16b
16a
16g
16b
16g
16f#
16e
16g
16e
16d
=248
8c#
16r
32a
32ee
8gg
8gg
8r
16r
32a
32dd
8ff#
8ff#
=249
8r
8bb
8aa#
8bb
8aa#
8bb
8ccc#
8ddd
=250
8r
8ddd
8ccc#
8ddd
8ccc#
8ddd
8eee
8fff
=251
16aa
16ddd
16aa
16ff#
16ff#
16aa
16ff#
16dd
16aa
16ddd
16aa
16ff#
16ff#
16aa
16ff#
16dd
=252
1ee
=253
4.dd
16f#
16d
8g
16e
16c#
8d
16B
16G#
=254
4A
4ccc#
4ddd
4r
==
*-
